src/symbolic/status/daytime-sunset-symbolic.svg

<svg xmlns="http://www.w3.org/2000/svg" width="16" height="16" version="1.1">
 <path style="fill:#444444" d="M 8,0 7.5,1.0293 C 7.67,1.0193 7.83,1 8,1 8.17,1 8.33,1.0193 8.5,1.0293 Z M 8,2 C 4.69,2 2,4.68 2,8 H 14 C 14,4.68 11.31,2 8,2 Z M 2.3398,2.3398 2.7207,3.4297 C 2.9407,3.1797 3.1895,2.9309 3.4395,2.7109 Z M 13.66,2.3398 12.561,2.7109 C 12.811,2.9309 13.059,3.1797 13.279,3.4297 Z M 1.0293,7.5 0,8 H 1 C 1,7.83 1.0193,7.66 1.0293,7.5 Z M 14.971,7.5 C 14.981,7.66 15,7.83 15,8 H 16 Z"/>
 <path style="fill:#444444" d="M 1,9 H 15 C 15.554,9 16,9.446 16,10 16,10.554 15.554,11 15,11 H 1 C 0.446,11 0,10.554 0,10 0,9.446 0.446,9 1,9 Z"/>
 <path style="fill:#444444" d="M 8,16 11,12 H 5 Z"/>
</svg>

<svg xmlns="http://www.w3.org/2000/svg" width="16" height="16"><path d="M8 0l-.5 1.03c.17-.01.33-.03.5-.03.17 0 .33.02.5.03zm0 2C4.69 2 2 4.68 2 8h12c0-3.32-2.69-6-6-6zm-5.66.34l.38 1.09c.22-.25.47-.5.72-.72zm11.32 0l-1.099.37c.25.22.498.47.718.72zM1.03 7.5L0 8h1c0-.17.02-.34.03-.5zm13.941 0c.01.16.029.33.029.5h1zM1 9h14c.554 0 1 .446 1 1s-.446 1-1 1H1c-.554 0-1-.446-1-1s.446-1 1-1zM8 16l3-4H5z" fill="#444"/></svg>
